; generated by Slic3r 1.3.1-dev (Build 18ddd3a36dc69d81fb9b7440498bff9e1dde8b7e) on 2024-06-14 at 08:44:55

; external perimeters extrusion width = 0.44mm (1.13mm^3/s)
; perimeters extrusion width = 0.30mm (0.71mm^3/s)
; infill extrusion width = 0.48mm (1.26mm^3/s)
; solid infill extrusion width = 0.48mm (2.51mm^3/s)
; top infill extrusion width = 0.48mm (1.88mm^3/s)

G92 E0


; Filament gcode

G21 ; set units to millimeters
G90 ; use absolute coordinates
M82 ; use absolute distances for extrusion
G92 E0 Z0 X5.327 Y5.036
G1 Z0.300 F3000.000
G1 X5.327 Y5.036 F3000.000
G1 F600.000
G1 X5.930 Y4.439 E0.11458
G1 X6.323 Y4.103 E0.18428
G1 X6.732 Y3.790 E0.25392
G1 X7.158 Y3.498 E0.32359
G1 X7.596 Y3.229 E0.39303
G1 X8.050 Y2.983 E0.46271
G1 X8.515 Y2.761 E0.53227
G1 X9.476 Y2.391 E0.67131
G1 X10.476 Y2.124 E0.81098
G1 X10.981 Y2.031 E0.88038
G1 X11.492 Y1.963 E0.94995
G1 X12.006 Y1.922 E1.01950
G1 X12.523 Y1.910 E1.08931
G1 X13.038 Y1.922 E1.15891
G1 X13.552 Y1.963 E1.22846
G1 X14.062 Y2.031 E1.29803
G1 X14.568 Y2.124 E1.36743
G1 X15.568 Y2.391 E1.50710
G1 X16.529 Y2.761 E1.64614
G1 X16.994 Y2.983 E1.71569
G1 X17.446 Y3.229 E1.78519
G1 X17.886 Y3.498 E1.85483
G1 X18.311 Y3.790 E1.92448
G1 X18.721 Y4.103 E1.99410
G1 X19.112 Y4.439 E2.06366
G1 X19.487 Y4.794 E2.13336
G1 X19.842 Y5.169 E2.20305
G1 X20.177 Y5.560 E2.27261
G1 X20.491 Y5.969 E2.34223
G1 X20.782 Y6.395 E2.41189
G1 X21.052 Y6.833 E2.48133
G1 X21.298 Y7.287 E2.55101
G1 X21.520 Y7.752 E2.62057
G1 X21.890 Y8.715 E2.75989
G1 X22.037 Y9.210 E2.82952
G1 X22.157 Y9.711 E2.89910
G1 X22.251 Y10.218 E2.96877
G1 X22.317 Y10.729 E3.03828
G1 X22.358 Y11.243 E3.10790
G1 X22.373 Y11.760 E3.17769
G1 X22.358 Y12.275 E3.24726
G1 X22.317 Y12.789 E3.31687
G1 X22.251 Y13.299 E3.38638
G1 X22.157 Y13.807 E3.45606
G1 X22.037 Y14.308 E3.52563
G1 X21.890 Y14.803 E3.59527
G1 X21.520 Y15.766 E3.73459
G1 X21.298 Y16.231 E3.80413
G1 X21.052 Y16.683 E3.87364
G1 X20.782 Y17.123 E3.94328
G1 X20.491 Y17.548 E4.01293
G1 X20.177 Y17.958 E4.08255
G1 X19.842 Y18.349 E4.15211
G1 X19.487 Y18.724 E4.22180
G1 X19.112 Y19.079 E4.29149
G1 X18.721 Y19.414 E4.36105
G1 X18.311 Y19.728 E4.43067
G1 X17.886 Y20.019 E4.50032
G1 X17.446 Y20.289 E4.56996
G1 X16.994 Y20.535 E4.63946
G1 X16.529 Y20.757 E4.70901
G1 X15.566 Y21.127 E4.84832
G1 X15.071 Y21.274 E4.91796
G1 X14.570 Y21.394 E4.98753
G1 X14.062 Y21.488 E5.05721
G1 X13.552 Y21.554 E5.12672
G1 X13.038 Y21.595 E5.19633
G1 X12.523 Y21.610 E5.26591
G1 X12.006 Y21.595 E5.33570
G1 X11.492 Y21.554 E5.40531
G1 X10.981 Y21.488 E5.47482
G1 X10.474 Y21.394 E5.54450
G1 X9.973 Y21.274 E5.61407
G1 X9.478 Y21.127 E5.68371
G1 X8.515 Y20.757 E5.82302
G1 X8.050 Y20.535 E5.89258
G1 X7.596 Y20.289 E5.96226
G1 X7.158 Y20.019 E6.03170
G1 X6.732 Y19.728 E6.10137
G1 X6.323 Y19.414 E6.17101
G1 X5.930 Y19.079 E6.24071
G1 X5.557 Y18.724 E6.31023
G1 X5.202 Y18.349 E6.37994
G1 X4.866 Y17.958 E6.44950
G1 X4.553 Y17.548 E6.51912
G1 X4.261 Y17.123 E6.58877
G1 X3.992 Y16.683 E6.65841
G1 X3.746 Y16.231 E6.72791
G1 X3.524 Y15.766 E6.79746
G1 X3.154 Y14.805 E6.93650
G1 X2.887 Y13.805 E7.07617
G1 X2.794 Y13.299 E7.14557
G1 X2.726 Y12.789 E7.21514
G1 X2.685 Y12.275 E7.28469
G1 X2.673 Y11.760 E7.35429
G1 X2.685 Y11.243 E7.42411
G1 X2.726 Y10.729 E7.49366
G1 X2.794 Y10.218 E7.56322
G1 X2.887 Y9.713 E7.63262
G1 X3.154 Y8.713 E7.77229
G1 X3.327 Y8.229 E7.84162
G1 X3.524 Y7.752 E7.91138
G1 X3.746 Y7.287 E7.98094
G1 X3.992 Y6.833 E8.05062
G1 X4.261 Y6.395 E8.12006
G1 X4.553 Y5.969 E8.18972
G1 X4.866 Y5.560 E8.25934
G1 X5.286 Y5.080 E8.34540
G1 X5.653 Y5.110 F3000.000
G92 E0
G1 X5.499 Y5.198 F3000.000
G1 F600.000
G1 X6.088 Y4.614 E0.11204
G1 X6.471 Y4.287 E0.18005
G1 X6.871 Y3.981 E0.24799
G1 X7.714 Y3.433 E0.38378
G1 X8.157 Y3.193 E0.45177
G1 X8.611 Y2.976 E0.51966
G1 X9.546 Y2.616 E0.65500
G1 X10.527 Y2.354 E0.79210
G1 X11.517 Y2.198 E0.92735
G1 X12.018 Y2.158 E0.99519
G1 X13.026 Y2.158 E1.13125
G1 X13.527 Y2.198 E1.19909
G1 X14.516 Y2.354 E1.33435
G1 X15.497 Y2.616 E1.47144
G1 X16.433 Y2.976 E1.60678
G1 X16.886 Y3.193 E1.67463
G1 X17.328 Y3.433 E1.74248
G1 X17.758 Y3.696 E1.81049
G1 X18.173 Y3.981 E1.87849
G1 X18.572 Y4.286 E1.94638
G1 X18.954 Y4.614 E2.01428
G1 X19.320 Y4.960 E2.08232
G1 X19.666 Y5.327 E2.15036
G1 X19.994 Y5.708 E2.21827
G1 X20.300 Y6.108 E2.28615
G1 X20.848 Y6.951 E2.42194
G1 X21.088 Y7.394 E2.48994
G1 X21.305 Y7.848 E2.55783
G1 X21.666 Y8.788 E2.69386
G1 X21.809 Y9.270 E2.76177
G1 X21.926 Y9.760 E2.82970
G1 X22.018 Y10.255 E2.89769
G1 X22.123 Y11.255 E3.03350
G1 X22.137 Y11.760 E3.10158
G1 X22.123 Y12.262 E3.16945
G1 X22.018 Y13.263 E3.30526
G1 X21.926 Y13.758 E3.37326
G1 X21.809 Y14.247 E3.44118
G1 X21.666 Y14.729 E3.50909
G1 X21.305 Y15.670 E3.64513
G1 X21.088 Y16.123 E3.71297
G1 X20.848 Y16.565 E3.78083
G1 X20.585 Y16.995 E3.84883
G1 X20.300 Y17.410 E3.91683
G1 X19.994 Y17.809 E3.98472
G1 X19.666 Y18.191 E4.05263
G1 X19.320 Y18.557 E4.12067
G1 X18.954 Y18.903 E4.18871
G1 X18.572 Y19.231 E4.25661
G1 X18.173 Y19.537 E4.32450
G1 X17.758 Y19.822 E4.39250
G1 X17.328 Y20.085 E4.46051
G1 X16.886 Y20.325 E4.52836
G1 X16.433 Y20.542 E4.59621
G1 X15.493 Y20.903 E4.73224
G1 X15.010 Y21.046 E4.80015
G1 X14.521 Y21.163 E4.86808
G1 X14.026 Y21.255 E4.93607
G1 X13.025 Y21.360 E5.07188
G1 X12.523 Y21.374 E5.13975
G1 X12.018 Y21.360 E5.20784
G1 X11.018 Y21.255 E5.34364
G1 X10.523 Y21.163 E5.41164
G1 X10.033 Y21.046 E5.47956
G1 X9.551 Y20.903 E5.54747
G1 X8.611 Y20.542 E5.68351
G1 X8.157 Y20.325 E5.75139
G1 X7.714 Y20.085 E5.81939
G1 X6.871 Y19.537 E5.95518
G1 X6.471 Y19.231 E6.02312
G1 X6.088 Y18.903 E6.09113
G1 X5.724 Y18.558 E6.15896
G1 X5.377 Y18.191 E6.22706
G1 X5.049 Y17.809 E6.29496
G1 X4.744 Y17.410 E6.36285
G1 X4.459 Y16.995 E6.43085
G1 X4.196 Y16.565 E6.49886
G1 X3.956 Y16.123 E6.56671
G1 X3.739 Y15.670 E6.63456
G1 X3.379 Y14.734 E6.76990
G1 X3.117 Y13.753 E6.90699
G1 X2.961 Y12.764 E7.04224
G1 X2.921 Y12.263 E7.11009
G1 X2.921 Y11.255 E7.24615
G1 X2.961 Y10.754 E7.31399
G1 X3.027 Y10.255 E7.38194
G1 X3.117 Y9.764 E7.44928
G1 X3.379 Y8.783 E7.58638
G1 X3.547 Y8.314 E7.65364
G1 X3.739 Y7.848 E7.72176
G1 X3.956 Y7.394 E7.78965
G1 X4.196 Y6.951 E7.85764
G1 X4.459 Y6.523 E7.92543
G1 X4.744 Y6.108 E7.99347
G1 X5.049 Y5.708 E8.06136
G1 X5.457 Y5.242 E8.14500
G92 E0
G1 X12.073 Y2.418 F3000.000
G1 F600.000
G1 X12.073 Y21.104 E2.52264
G1 X11.057 Y20.994 E2.66049
G1 X10.101 Y20.791 E2.79244
G1 X9.173 Y20.489 E2.92421
G1 X8.719 Y20.301 E2.99053
G1 X8.277 Y20.090 E3.05672
G1 X7.846 Y19.856 E3.12292
G1 X7.429 Y19.600 E3.18897
G1 X6.884 Y19.215 E3.27906
G1 X6.279 Y18.720 E3.38457
G1 X5.901 Y18.362 E3.45487
G1 X5.571 Y18.014 E3.51961
G1 X4.958 Y17.255 E3.65130
G1 X4.551 Y16.641 E3.75073
G1 X4.190 Y16.002 E3.84979
G1 X3.792 Y15.109 E3.98177
G1 X3.490 Y14.179 E4.11381
G1 X3.286 Y13.221 E4.24599
G1 X3.184 Y12.251 E4.37776
G1 X3.173 Y11.760 E4.44409
G1 X3.184 Y11.270 E4.51017
G1 X3.223 Y10.779 E4.57669
G1 X3.350 Y9.951 E4.68977
G1 X3.490 Y9.337 E4.77477
G1 X3.790 Y8.415 E4.90570
G1 X4.057 Y7.794 E4.99691
G1 X4.424 Y7.084 E5.10482
G1 X4.680 Y6.667 E5.17096
G1 X4.959 Y6.262 E5.23734
G1 X5.573 Y5.502 E5.36913
G1 X6.265 Y4.810 E5.50125
G1 X6.759 Y4.399 E5.58807
G1 X7.428 Y3.918 E5.69937
G1 X7.846 Y3.662 E5.76550
G1 X8.279 Y3.427 E5.83197
G1 X9.171 Y3.029 E5.96389
G1 X10.101 Y2.727 E6.09593
G1 X11.058 Y2.523 E6.22796
G1 X12.013 Y2.423 E6.35757
G1 X12.472 Y2.404 F3000.000
G92 E0
G1 X12.308 Y2.163 F3000.000
G1 F600.000
G1 X12.308 Y21.367 E2.59253
G1 X11.020 Y21.227 E2.76743
G1 X10.040 Y21.019 E2.90267
G1 X9.092 Y20.710 E3.03736
G1 X8.623 Y20.517 E3.10577
G1 X8.170 Y20.300 E3.17363
G1 X7.728 Y20.060 E3.24149
G1 X7.299 Y19.797 E3.30941
G1 X6.741 Y19.403 E3.40166
G1 X6.123 Y18.897 E3.50946
G1 X5.735 Y18.528 E3.58176
G1 X5.394 Y18.169 E3.64861
G1 X4.768 Y17.394 E3.78305
G1 X4.350 Y16.765 E3.88511
G1 X3.979 Y16.109 E3.98683
G1 X3.572 Y15.194 E4.12198
G1 X3.262 Y14.240 E4.25737
G1 X3.053 Y13.258 E4.39289
G1 X2.949 Y12.266 E4.52761
G1 X2.937 Y11.760 E4.59598
G1 X2.949 Y11.258 E4.66369
G1 X2.989 Y10.752 E4.73227
G1 X3.118 Y9.907 E4.84764
G1 X3.263 Y9.274 E4.93523
G1 X3.569 Y8.332 E5.06905
G1 X3.843 Y7.693 E5.16286
G1 X4.219 Y6.968 E5.27307
G1 X4.483 Y6.538 E5.34122
G1 X4.770 Y6.121 E5.40965
G1 X5.397 Y5.345 E5.54433
G1 X6.106 Y4.636 E5.67959
G1 X6.614 Y4.212 E5.76899
G1 X7.298 Y3.721 E5.88259
G1 X7.728 Y3.458 E5.95071
G1 X8.174 Y3.215 E6.01927
G1 X9.087 Y2.809 E6.15410
G1 X10.040 Y2.499 E6.28949
G1 X11.019 Y2.291 E6.42461
G1 X11.635 Y2.217 E6.50832
G1 X12.248 Y2.168 E6.59140
G92 E0
G1 X12.973 Y2.414 F3000.000
G1 F600.000
G1 X13.983 Y2.523 E0.13718
G1 X14.466 Y2.613 E0.20352
G1 X14.944 Y2.729 E0.26995
G1 X15.872 Y3.029 E0.40164
G1 X16.767 Y3.427 E0.53383
G1 X17.613 Y3.916 E0.66578
G1 X18.147 Y4.293 E0.75400
G1 X18.764 Y4.797 E0.86157
G1 X19.142 Y5.156 E0.93195
G1 X19.472 Y5.504 E0.99668
G1 X20.084 Y6.262 E1.12820
G1 X20.364 Y6.667 E1.19458
G1 X20.619 Y7.083 E1.26052
G1 X20.854 Y7.516 E1.32712
G1 X21.252 Y8.408 E1.45890
G1 X21.554 Y9.338 E1.59095
G1 X21.757 Y10.295 E1.72299
G1 X21.835 Y10.951 E1.81221
G1 X21.873 Y11.758 E1.92123
G1 X21.860 Y12.249 E1.98755
G1 X21.821 Y12.737 E2.05360
G1 X21.698 Y13.540 E2.16331
G1 X21.554 Y14.180 E2.25188
G1 X21.252 Y15.109 E2.38379
G1 X20.853 Y16.004 E2.51597
G1 X20.364 Y16.850 E2.64792
G1 X19.981 Y17.392 E2.73755
G1 X19.471 Y18.016 E2.84630
G1 X18.779 Y18.707 E2.97836
G1 X18.277 Y19.125 E3.06646
G1 X17.614 Y19.601 E3.17675
G1 X16.767 Y20.090 E3.30877
G1 X15.872 Y20.489 E3.44095
G1 X14.942 Y20.791 E3.57300
G1 X13.985 Y20.994 E3.70514
G1 X12.973 Y21.104 E3.84259
G1 X12.973 Y2.474 E6.35772
G1 X12.994 Y2.014 F3000.000
G92 E0
G1 X12.737 Y2.151 F3000.000
G1 F600.000
G1 X14.017 Y2.290 E0.17382
G1 X14.515 Y2.382 E0.24223
G1 X15.008 Y2.502 E0.31071
G1 X15.957 Y2.809 E0.44529
G1 X16.874 Y3.217 E0.58084
G1 X17.740 Y3.718 E0.71590
G1 X18.290 Y4.105 E0.80669
G1 X18.920 Y4.620 E0.91655
G1 X19.309 Y4.989 E0.98895
G1 X19.650 Y5.349 E1.05580
G1 X20.273 Y6.121 E1.18978
G1 X20.561 Y6.538 E1.25821
G1 X20.823 Y6.965 E1.32584
G1 X21.066 Y7.412 E1.39453
G1 X21.472 Y8.324 E1.52923
G1 X21.782 Y9.277 E1.66462
G1 X21.990 Y10.257 E1.79979
G1 X22.070 Y10.932 E1.89159
G1 X22.108 Y11.756 E2.00291
G1 X22.095 Y12.262 E2.07125
G1 X22.055 Y12.764 E2.13928
G1 X21.930 Y13.584 E2.25125
G1 X21.781 Y14.243 E2.34242
G1 X21.472 Y15.194 E2.47746
G1 X21.063 Y16.111 E2.61297
G1 X20.563 Y16.977 E2.74804
G1 X20.169 Y17.535 E2.84026
G1 X19.646 Y18.174 E2.95172
G1 X18.938 Y18.882 E3.08681
G1 X18.422 Y19.311 E3.17751
G1 X17.742 Y19.799 E3.29050
G1 X16.874 Y20.300 E3.42577
G1 X15.957 Y20.709 E3.56128
G1 X15.003 Y21.019 E3.69667
G1 X14.022 Y21.227 E3.83209
G1 X12.737 Y21.367 E4.00660
G1 X12.737 Y2.211 E6.59263
G1 Z0.600 F3000.000
G1 X12.741 Y1.985 F3000.000
G1 F600.000
G1 X13.544 Y2.033 E6.76578
G1 X14.052 Y2.100 E6.87591
G1 X14.553 Y2.192 E6.98557
G1 X15.547 Y2.458 E7.20701
G1 X16.500 Y2.825 E7.42692
G1 X16.962 Y3.045 E7.53698
G1 X17.411 Y3.289 E7.64700
G1 X17.848 Y3.557 E7.75725
G1 X18.270 Y3.847 E7.86750
G1 X18.677 Y4.158 E7.97767
G1 X19.437 Y4.843 E8.19803
G1 X20.123 Y5.604 E8.41839
G1 X20.434 Y6.010 E8.52856
G1 X20.724 Y6.433 E8.63885
G1 X20.991 Y6.868 E8.74877
G1 X21.235 Y7.319 E8.85905
G1 X21.456 Y7.780 E8.96915
G1 X21.824 Y8.737 E9.18969
G1 X21.969 Y9.228 E9.29989
G1 X22.088 Y9.725 E9.41002
G1 X22.182 Y10.229 E9.52030
G1 X22.248 Y10.736 E9.63032
G1 X22.288 Y11.247 E9.74053
G1 X22.303 Y11.760 E9.85098
G1 X22.288 Y12.271 E9.96109
G1 X22.248 Y12.781 E10.07130
G1 X22.182 Y13.288 E10.18133
G1 X22.088 Y13.792 E10.29161
G1 X21.969 Y14.290 E10.40174
G1 X21.824 Y14.781 E10.51194
G1 X21.456 Y15.737 E10.73248
G1 X21.235 Y16.199 E10.84254
G1 X20.991 Y16.648 E10.95256
G1 X20.724 Y17.085 E11.06280
G1 X20.434 Y17.507 E11.17306
G1 X20.123 Y17.914 E11.28322
G1 X19.437 Y18.674 E11.50359
G1 X18.677 Y19.360 E11.72395
G1 X18.270 Y19.671 E11.83411
G1 X17.848 Y19.961 E11.94437
G1 X17.411 Y20.228 E12.05461
G1 X16.962 Y20.472 E12.16463
G1 X16.500 Y20.693 E12.27470
G1 X15.544 Y21.061 E12.49524
G1 X15.053 Y21.206 E12.60543
G1 X14.555 Y21.325 E12.71556
G1 X14.052 Y21.419 E12.82585
G1 X13.545 Y21.485 E12.93587
G1 X13.034 Y21.525 E13.04608
G1 X12.523 Y21.540 E13.15619
G1 X12.010 Y21.525 E13.26664
G1 X11.499 Y21.485 E13.37685
G1 X10.992 Y21.419 E13.48687
G1 X10.488 Y21.325 E13.59716
G1 X9.991 Y21.206 E13.70729
G1 X9.500 Y21.061 E13.81748
G1 X8.543 Y20.693 E14.03802
G1 X8.082 Y20.472 E14.14812
G1 X7.631 Y20.228 E14.25840
G1 X7.196 Y19.961 E14.36832
G1 X6.773 Y19.671 E14.47861
G1 X6.367 Y19.360 E14.58883
G1 X5.977 Y19.027 E14.69914
G1 X5.606 Y18.675 E14.80917
G1 X4.921 Y17.914 E15.02958
G1 X4.610 Y17.507 E15.13975
G1 X4.320 Y17.085 E15.25000
G1 X4.052 Y16.648 E15.36024
G1 X3.808 Y16.199 E15.47026
G1 X3.588 Y15.737 E15.58033
G1 X3.221 Y14.784 E15.80023
G1 X2.955 Y13.790 E16.02167
G1 X2.863 Y13.288 E16.13133
G1 X2.796 Y12.781 E16.24147
G1 X2.755 Y12.271 E16.35154
G1 X2.743 Y11.760 E16.46171
G1 X2.755 Y11.246 E16.57223
G1 X2.796 Y10.736 E16.68229
G1 X2.863 Y10.229 E16.79243
G1 X2.955 Y9.728 E16.90209
G1 X3.221 Y8.734 E17.12353
G1 X3.588 Y7.780 E17.34343
G1 X3.808 Y7.319 E17.45353
G1 X4.052 Y6.868 E17.56382
G1 X4.320 Y6.433 E17.67373
G1 X4.610 Y6.010 E17.78403
G1 X4.921 Y5.604 E17.89419
G1 X5.606 Y4.843 E18.11461
G1 X5.977 Y4.491 E18.22463
G1 X6.367 Y4.158 E18.33495
G1 X6.773 Y3.847 E18.44516
G1 X7.196 Y3.557 E18.55545
G1 X7.631 Y3.289 E18.66537
G1 X8.082 Y3.045 E18.77565
G1 X8.543 Y2.825 E18.88575
G1 X9.018 Y2.629 E18.99618
G1 X9.497 Y2.458 E19.10572
G1 X10.491 Y2.192 E19.32716
G1 X10.992 Y2.100 E19.43682
G1 X11.499 Y2.033 E19.54696
G1 X12.009 Y1.992 E19.65702
G1 X12.681 Y1.984 E19.80162
G1 X12.884 Y2.241 F3000.000
G1 X12.597 Y2.287 F3000.000
G1 F600.000
G1 X12.597 Y21.232 E22.35913
G1 X12.523 Y21.234 E22.36918
G1 X12.448 Y21.232 E22.37923
G1 X12.448 Y2.287 E24.93674
G1 X12.537 Y2.286 E24.94873
G1 X12.143 Y2.342 F3000.000
G1 F600.000
G1 X12.143 Y21.182 E29.00328
G1 X11.046 Y21.063 E29.24072
G1 X10.083 Y20.859 E29.45249
G1 X9.149 Y20.555 E29.66394
G1 X8.691 Y20.365 E29.77065
G1 X8.245 Y20.152 E29.87696
G1 X7.811 Y19.917 E29.98328
G1 X7.390 Y19.659 E30.08950
G1 X6.821 Y19.255 E30.23976
G1 X6.232 Y18.772 E30.40356
G1 X5.851 Y18.410 E30.51661
G1 X5.519 Y18.060 E30.62061
G1 X4.902 Y17.297 E30.83169
G1 X4.553 Y16.779 E30.96613
G1 X4.128 Y16.035 E31.15050
G1 X3.727 Y15.135 E31.36269
G1 X3.422 Y14.197 E31.57478
G1 X3.217 Y13.232 E31.78708
G1 X3.114 Y12.255 E31.99854
G1 X3.103 Y11.760 E32.10525
G1 X3.114 Y11.264 E32.21196
G1 X3.217 Y10.285 E32.42376
G1 X3.422 Y9.320 E32.63607
G1 X3.725 Y8.389 E32.84677
G1 X4.005 Y7.740 E32.99884
G1 X4.363 Y7.050 E33.16629
G1 X4.621 Y6.628 E33.27267
G1 X4.903 Y6.220 E33.37946
G1 X5.520 Y5.455 E33.59091
G1 X6.217 Y4.758 E33.80305
G1 X6.727 Y4.335 E33.94558
G1 X7.390 Y3.859 E34.12119
G1 X7.811 Y3.601 E34.22755
G1 X8.248 Y3.364 E34.33451
G1 X9.146 Y2.964 E34.54618
G1 X10.083 Y2.659 E34.75827
G1 X11.047 Y2.454 E34.97027
G1 X12.083 Y2.347 E35.19442
G1 X12.542 Y2.329 F3000.000
G1 X12.903 Y2.336 F3000.000
G1 F600.000
G1 X13.993 Y2.454 E35.43046
G1 X14.481 Y2.544 E35.53720
G1 X14.963 Y2.661 E35.64407
G1 X15.897 Y2.963 E35.85538
G1 X16.799 Y3.365 E36.06771
G1 X17.651 Y3.857 E36.27961
G1 X18.232 Y4.270 E36.43302
G1 X18.811 Y4.746 E36.59425
G1 X19.193 Y5.107 E36.70730
G1 X19.525 Y5.458 E36.81130
G1 X20.141 Y6.220 E37.02213
G1 X20.422 Y6.628 E37.12892
G1 X20.680 Y7.048 E37.23484
G1 X20.917 Y7.485 E37.34180
G1 X21.317 Y8.383 E37.55347
G1 X21.622 Y9.320 E37.76556
G1 X21.826 Y10.284 E37.97765
G1 X21.911 Y11.021 E38.13733
G1 X21.943 Y11.758 E38.29596
